X: 21903
T: Kit O'Mahoney's
R: hornpipe
M: 4/4
K: Gmajor
|:GA|B3 c ABAG|FGAB cAFA|DBBd cAFA|D2 G2 G2 GA|
B2 Bc ABAG|FGAB cAFA|f3 d ecAF|D2 G2 G2-:|
|:GD|GABc d2 g2|defd cAFA|GABc dgef|gagf d2 ef|
gBdg fAAd|efed (3Bcd eg|fafd ecAF|D2 G2 G2-:|

